X: 14
T: Missa Ave Maria / Kyrie
N: Derived from Rue1004a-Missa_Ave_Maria-Kyrie.krn
C: Pierre de la Rue
%%abc-version 2.0
%%abcx-abcm2ps-target-version 5.9.1 (29 Sep 2008)
%%abc-creator hum2abc beta
%%abcx-conversion-date 2019/02/17 08:01:09
%%abc-edited-by Jesse Rodin
%%abc-edited-by Chris Gage 12-02-2012
%%abcx-initial-encoding-date 2013/05/24/
%%humdrum-veritas 1819442745
%%humdrum-veritas-data 3272829740
%%linebreak <none>
%%barnumbers 0
L: 1/4
M: 4/2
Q: 1/2=120
%%staves [1 2 3 4]
V: 1 clef=treble
V: 2 clef=treble-8
V: 3 clef=treble-8
V: 4 clef=bass
K: C
[V:1] z8 | 
[V:2] c8 | 
[V:3] z8 | 
[V:4] z8 | 
[V:1] z8 | 
[V:2] G4A4 | 
[V:3] z8 | 
[V:4] z8 | 
[V:1] c8 | 
[V:2] z2A2c3d | 
[V:3] z8 | 
[V:4] z8 | 
[V:1] G4A4 | 
[V:2] e4f4- | 
[V:3] z8 | 
[V:4] z8 | 
[V:1] z2A2c3d | 
[V:2] f4f4 | 
[V:3] z8 | 
[V:4] z8 | 
[V:1] e4f4- | 
[V:2] e2a4d2 | 
[V:3] z8 | 
[V:4] z8 | 
[V:1] f4f4 | 
[V:2] a2d2a4 | 
[V:3] z8 | 
[V:4] F,8 | 
[V:1] e4z2A2- | 
[V:2] g2e2f4 | 
[V:3] z8 | 
[V:4] C,4D,4- | 
[V:1] A2A2_B2A2- | 
[V:2] d2f4ed | 
[V:3] z8 | 
[V:4] D,4z2D,2 | 
[V:1] A2c4_BA | 
[V:2] a3ge2f2 | 
[V:3] c8 | 
[V:4] F,3G,A,4 | 
[V:1] d2G2d4 | 
[V:2] g3fd2g2- | 
[V:3] G8 | 
[V:4] _B,8 | 
[V:1] c4z2c2- | 
[V:2] g2f2g2e2 | 
[V:3] A4z2A2 | 
[V:4] A,4G,2A,2 | 
[V:1] c2BAcBe2 | 
[V:2] a4g4 | 
[V:3] c3de4 | 
[V:4] F,4E,4 | 
[V:1] d2c2d4 | 
[V:2] z4a4 | 
[V:3] f8 | 
[V:4] z8 | 
[V:1] e4z2B2 | 
[V:2] g2g3fed | 
[V:3] e8 | 
[V:4] E,8 | 
[V:1] c2d3cBA | 
[V:2] c2B3AA2 | 
[V:3] z8 | 
[V:4] A,2G,2F,4 | 
[V:1] G3AB2c2- | 
[V:2] B4z4 | 
[V:3] e4d2c2 | 
[V:4] E,2G,4E,2 | 
[V:1] cBA2G2B2- | 
[V:2] A3Bc2B2- | 
[V:3] d4e4 | 
[V:4] F,4E,4- | 
[V:1] B2c2d2e2- | 
[V:2] B2AGB2E2 | 
[V:3] z2e2d2c2 | 
[V:4] E,4z2E,2- | 
[V:1] e2e2d2B2 | 
[V:2] e4B2d2- | 
[V:3] B4d4 | 
[V:4] E,2G,4D,2- | 
[V:1] d3cA3B | 
[V:2] dcA3Bcd | 
[V:3] A4z2e2- | 
[V:4] D,E,F,G,A,4 | 
[V:1] cde3dB2 | 
[V:2] e4B4 | 
[V:3] edB2d4 | 
[V:4] E,4z2G,2 | 
[V:1] dcBAB2c2- | 
[V:2] z2B4e2- | 
[V:3] A2e2d2c2 | 
[V:4] F,2G,4E,2 | 
[V:1] cAA4^G2 | 
[V:2] e2d2e4 | 
[V:3] dcBAB4 | 
[V:4] F,4E,4 | 
[V:1] A8 ||  
[V:2] e8 ||  
[V:3] A8 ||  
[V:4] A,,8 ||  
[V:1]  [K:C] [K:clef=treble][M:2/1]A8 | 
[V:2]  [K:C] [K:clef=treble-8][M:2/1]z8 | 
[V:3]  [K:C] [K:clef=treble-8][M:2/1]z4d4 | 
[V:4]  [K:C] [K:clef=bass][M:2/1]z8 | 
[V:1] A4B4 | 
[V:2] z8 | 
[V:3] d8 | 
[V:4] z8 | 
[V:1] c4d4 | 
[V:2] z8 | 
[V:3] e4d4- | 
[V:4] z8 | 
[V:1] z2A4A2 | 
[V:2] z8 | 
[V:3] d4z2d2 | 
[V:4] z8 | 
[V:1] B2d4^c2 | 
[V:2] z4A4- | 
[V:3] d4e4 | 
[V:4] z8 | 
[V:1] d8 | 
[V:2] A4A4 | 
[V:3] d8 | 
[V:4] D,8 | 
[V:1] z8 | 
[V:2] B4c4 | 
[V:3] z8 | 
[V:4] D,4E,4 | 
[V:1] z8 | 
[V:2] d4z2A2 | 
[V:3] z8 | 
[V:4] F,4G,2F,2 | 
[V:1] z8 | 
[V:2] B4c4 | 
[V:3] z8 | 
[V:4] G,2D,2E,4 | 
[V:1] z8 | 
[V:2] d8 | 
[V:3] A4B4 | 
[V:4] F,4G,2B,2 | 
[V:1] z4A4- | 
[V:2] e4f2a2- | 
[V:3] c4d2e2- | 
[V:4] A,8- | 
[V:1] A4A4 | 
[V:2] a2g4f2 | 
[V:3] e2d4c2 | 
[V:4] A,8 | 
[V:1] B4c4 | 
[V:2] g2f2z2a2- | 
[V:3] d2f2e4 | 
[V:4] G,2D,2A,4 | 
[V:1] d8 | 
[V:2] a2a2b2g2 | 
[V:3] d8 | 
[V:4] D,2F,2G,2B,2 | 
[V:1] z2c2d2f2 | 
[V:2] a4z2f2 | 
[V:3] z8 | 
[V:4] A,4D,4 | 
[V:1] e4A4- | 
[V:2] g2e2f2a2- | 
[V:3] z2c2d2e2- | 
[V:4] z4z2C,2 | 
[V:1] A4e4 | 
[V:2] a2f2g4 | 
[V:3] e2d4^c2 | 
[V:4] D,2F,2E,4 | 
[V:1] f8 | 
[V:2] f8- | 
[V:3] d4z2c2- | 
[V:4] D,4F,4- | 
[V:1] f6ed | 
[V:2] f8 | 
[V:3] c2c4B2 | 
[V:4] F,2E,2D,4 | 
[V:1] e8 | 
[V:2] z4g4- | 
[V:3] c8 | 
[V:4] C,8- | 
[V:1] e6A2 | 
[V:2] g2e6 | 
[V:3] G4c4 | 
[V:4] C,8 | 
[V:1] A8- | 
[V:2] f4e4 | 
[V:3] z2d4c2 | 
[V:4] F,3G,A,4 | 
[V:1] A8 | 
[V:2] d4f3g | 
[V:3] d2A4d2 | 
[V:4] D,8 | 
[V:1] z2d4c2 | 
[V:2] a8- | 
[V:3] c2f4e2 | 
[V:4] F,3G,A,4 | 
[V:1] d2A4d2 | 
[V:2] a8 | 
[V:3] d2cBA4- | 
[V:4] D,4F,4- | 
[V:1] c2f4e2- | 
[V:2] z4a4 | 
[V:3] A4e4 & A4A4- | 
[V:4] F,4C,4 | 
[V:1] e2d4B2 | 
[V:2] a8- | 
[V:3] f6d2 & A8 | 
[V:4] D,8 | 
[V:1] c8 ||  
[V:2] a8 ||  
[V:3] A8 & e8 ||  
[V:4] A,,8 ||  
[V:1]  [K:C] [K:clef=treble][M:4/2]z8 | 
[V:2]  [K:C] [K:clef=treble-8][M:4/2]c4G2A2- | 
[V:3]  [K:C] [K:clef=treble-8][M:4/2]z8 | 
[V:4]  [K:C] [K:clef=bass][M:4/2]z8 | 
[V:1] c4G2A2- | 
[V:2] ABcde2f2- | 
[V:3] z8 | 
[V:4] z8 | 
[V:1] ABcde2f2- | 
[V:2] f2f2e2d2 | 
[V:3] z8 | 
[V:4] z8 | 
[V:1] f2f2e2d2 | 
[V:2] f4z2f2- | 
[V:3] z8 | 
[V:4] F,4C,2D,2- | 
[V:1] f3ec4 | 
[V:2] f2f2e2c2 | 
[V:3] z4c4 | 
[V:4] D,E,F,G,A,4 | 
[V:1] z2c4c2 | 
[V:2] d2c2A4 | 
[V:3] G2A3Bcd | 
[V:4] _B,2A,2F,2A,2 | 
[V:1] B2A2c3B | 
[V:2] z2A3Bcd | 
[V:3] e2f4f2 | 
[V:4] G,2F,3G,A,B, | 
[V:1] G2c4d2 | 
[V:2] e2A2z2d2 | 
[V:3] e2c2f4 | 
[V:4] C4A,2B,2 | 
[V:1] e3dc2B2 | 
[V:2] c4A2B2 | 
[V:3] e4z4 | 
[V:4] C2A,4G,2 | 
[V:1] e4A4- | 
[V:2] cBAGA4 | 
[V:3] e4d2c2 | 
[V:4] A,2E,2F,4- | 
[V:1] A4z2G2 | 
[V:2] z2A2B2c2 | 
[V:3] d4e4- | 
[V:4] F,4E,4 | 
[V:1] B2c2d2e2- | 
[V:2] G2c2B2G2 | 
[V:3] e4z4 | 
[V:4] z2A,2G,2E,2 | 
[V:1] edB4d2- | 
[V:2] B3cd4 | 
[V:3] z2e2d2B2 | 
[V:4] G,4G,2D,2- | 
[V:1] dcA3Bc2 | 
[V:2] A4d2e2- | 
[V:3] d4A4 | 
[V:4] D,2D,4A,2 | 
[V:1] B2G3AB2 | 
[V:2] efg4g2 | 
[V:3] e4d2B2 | 
[V:4] G,2E,2G,4 | 
[V:1] A2d2c2f2- | 
[V:2] f2d2f3g | 
[V:3] d3cA2d2- | 
[V:4] D,4z2D,2- | 
[V:1] f2e4d2- | 
[V:2] a4z4 | 
[V:3] d2c2f4 | 
[V:4] D,2A,2_B,2F,G, | 
[V:1] dcc2d4 | 
[V:2] a4f2g2- | 
[V:3] e4d4 | 
[V:4] A,4D,2G,2- | 
[V:1] B2c2B2G2- | 
[V:2] g2e2e4- | 
[V:3] z4z2B2 | 
[V:4] G,F,A,2E,4- | 
[V:1] G2e3dc2 | 
[V:2] e8 | 
[V:3] c2B4e2- | 
[V:4] E,4z2A,2 | 
[V:1] B2e3dcB | 
[V:2] z2a2g3f | 
[V:3] edc2B2e2- | 
[V:4] G,2A,2E,4 | 
[V:1] cBd3cBA | 
[V:2] e2d2a2g2 | 
[V:3] edB2d3c | 
[V:4] z2D,4G,2- | 
[V:1] BAc2BAA2- | 
[V:2] e4z2e2 | 
[V:3] B2A2e3d | 
[V:4] G,F,A,2E,2C,2 | 
[V:1] A2G2A2B2 | 
[V:2] f2e2c2g2- | 
[V:3] B4z2e2- | 
[V:4] D,2E,2F,2E,2- | 
[V:1] c2d2GABc | 
[V:2] g2f2e4 | 
[V:3] edBdc2BA | 
[V:4] E,2D,2E,4- | 
[V:1] BEA4^G2 | 
[V:2] e8- | 
[V:3] GABcBAB2 | 
[V:4] E,8 | 
[V:1] A8 |]  
[V:2] e8 |]  
[V:3] A8 |]  
[V:4] A,,8 |]  



